X:1228
T:Bath Waltz. JC.101
M:3/8
L:1/8
Q:27
S:John Clare,Poet,Helpston. (1793-1864)
R:Waltz
O:England
A:Northamptonshire
N:
Z:P Headford
K:Bb
(3(F/G/A/)|BBB|B2F/B/|ddd|d2B/d/|f2d/B/|g2e/c/|AA/B/c/A/|B2:|!
|:(d/f/)|(f/e/)e (c/A/)|(c/B/)B (d/f/)|(f/e/)e[fa]|[d2f2b2](d/f/)|(f/e/)
e (c/A/)|
)c/B/)B f
| (g/^f/g/e/c/A/)|B2:|!
|:F|(BAB)|c2d|(eGc)|(BA F)|(BAB)|{a}(g/^f/g/a/b/g/)|(f/g/f/e/d/c/)|B2:|]


